X: 1623
T: Tobin's Resource
R:hornpipe
N:"Collected by Tobin"
B:O'Neill's 1623
Z:Transcribed by Michael Hogan
M:C|
L:1/8
K:D
(AG) | (3FGA d>f ecAG | (3FGA d>f gecA | (3FGA d>B cdec | dcdf ecAG |
(3FGA d>f ecAG | (3FGA d>f gecA | (3FGA d>B cdec | d>f (3edc d2 :|
|: (d>e) | f2 ff f2 ec | dfec d2 (Ac) | BABc dcdf | edcB ABde |
f2 ff fgfe | dfec d2 (Ac) | (3Bcd gf edce | d>f (3edc d2 :||


